src/images_karasa_jaga_svg/cmd/32/flowchartshapes.flowchart-stored-data.svg

<svg height="32" viewBox="0 0 32 32" width="32" xmlns="http://www.w3.org/2000/svg" xmlns:xlink="http://www.w3.org/1999/xlink"><linearGradient id="a" gradientTransform="matrix(0 1 -1 0 123.387902 -.000002)" gradientUnits="userSpaceOnUse" x1="128" x2=".000002" y1="63.387901" y2="63.387901"><stop offset="0" stop-color="#fff"/><stop offset=".3125" stop-color="#fff"/><stop offset=".78125" stop-color="#f1f1f1"/><stop offset=".9375" stop-color="#eaeaea"/><stop offset="1" stop-color="#dfdfdf"/></linearGradient><linearGradient id="b" gradientUnits="userSpaceOnUse" x1="6.322266" x2="120.82954" y1="64" y2="64"><stop offset="0" stop-color="#7c9fcf"/><stop offset=".5" stop-color="#7c9ece"/><stop offset="1" stop-color="#7b9dcf"/></linearGradient><g fill-rule="evenodd" transform="scale(.25)"><path d="m24 11.996094a4.005062 4.005062 0 0 0 -.890625.09961c-6.114411 1.394904-10.063891 7.262971-12.697266 15.792968-2.6333738 8.529997-4.0882832 20.395877-4.0898434 36.111328a4.005062 4.005062 0 0 0 0 .002c.00508 15.705938 1.461007 27.56997 4.0937504 36.10157 2.632743 8.53159 6.576727 14.40538 12.693359 15.80078a4.005062 4.005062 0 0 0 .890625.09956h.244141.839843l-.01758-.002a4.005062 4.005062 0 0 0 .05859 0l-.01758.002h90.554696.33789a4.005062 4.005062 0 0 0 1.12109-.16016c.7781-.22708 1.3726-.55373 1.8125-.82617a4.005062 4.005062 0 0 0 -.56836-7.10156c-1.69712-.70739-4.56861-4.01827-6.63476-11.326176-2.06606-7.30755-3.3956-18.165883-3.40039-32.589844v-.002c.002-14.430532 1.32914-25.287358 3.39453-32.591797 2.06549-7.30479 4.93451-10.612396 6.63672-11.322266a4.005062 4.005062 0 0 0 .58789-7.085937c-.43773-.274858-1.03621-.610972-1.82617-.841797a4.005062 4.005062 0 0 0 -1.12305-.160109h-.39453-72.158204-16.806641-1.601563-.849609zm.179688 103.902346a4.005062 4.005062 0 0 0 .107421.0215l-.05078-.006c.05566.0121-.0963-.0259-.05664-.0156z" fill="url(#b)"/><path d="m24 16c-7.80419 1.780401-13.670758 17.075439-13.673828 48 .01 30.905712 5.874388 46.2207 13.673828 48h.244141.839843c.003.00065.0068.0009.0098.002.005-.00064.009-.0009.01367-.002h90.554656.33789c.29125-.085.56119-.22382.82422-.38672-7.20496-3.00315-12.48856-18.282802-12.49805-47.61328.00292-29.343731 5.28669-44.605619 12.49414-47.611328-.26039-.163504-.52858-.30343-.82031-.388672h-.39453-72.158204-16.806641-1.601563-.849609z" fill="url(#a)"/></g></svg>

<?xml version="1.0" encoding="UTF-8" standalone="no"?>
<!-- Created with Inkscape (http://www.inkscape.org/) -->

<svg
   xmlns:dc="http://purl.org/dc/elements/1.1/"
   xmlns:cc="http://creativecommons.org/ns#"
   xmlns:rdf="http://www.w3.org/1999/02/22-rdf-syntax-ns#"
   xmlns:svg="http://www.w3.org/2000/svg"
   xmlns="http://www.w3.org/2000/svg"
   xmlns:xlink="http://www.w3.org/1999/xlink"
   xmlns:sodipodi="http://sodipodi.sourceforge.net/DTD/sodipodi-0.dtd"
   xmlns:inkscape="http://www.inkscape.org/namespaces/inkscape"
   version="1.1"
   id="svg2"
   width="128"
   height="128"
   viewBox="0 0 128 128"
   sodipodi:docname="flowchartshapes.flowchart-stored-data.svg"
   inkscape:export-filename="/home/rizmut/Dokumen/Rizmut/Github/libreoffice-style-karasa-jaga/build/images_karasa_jaga/cmd/32/flowchartshapes.flowchart-stored-data.png"
   inkscape:export-xdpi="24"
   inkscape:export-ydpi="24"
   inkscape:version="0.92.3 (unknown)">
  <metadata
     id="metadata8">
    <rdf:RDF>
      <cc:Work
         rdf:about="">
        <dc:format>image/svg+xml</dc:format>
        <dc:type
           rdf:resource="http://purl.org/dc/dcmitype/StillImage" />
        <dc:title />
      </cc:Work>
    </rdf:RDF>
  </metadata>
  <defs
     id="defs6">
    <inkscape:perspective
       id="perspective27"
       inkscape:persp3d-origin="64 : 42.666667 : 1"
       inkscape:vp_z="128 : 64 : 1"
       inkscape:vp_y="0 : 1000 : 0"
       inkscape:vp_x="0 : 64 : 1"
       sodipodi:type="inkscape:persp3d" />
    <linearGradient
       id="linearGradient3369">
      <stop
         id="stop3372"
         offset="0"
         style="stop-color:#ffffff;stop-opacity:1;" />
      <stop
         style="stop-color:#ffffff;stop-opacity:1;"
         offset="0.3125"
         id="stop3374" />
      <stop
         style="stop-color:#f1f1f1;stop-opacity:1;"
         offset="0.78125"
         id="stop3376" />
      <stop
         id="stop3378"
         offset="0.9375"
         style="stop-color:#eaeaea;stop-opacity:1;" />
      <stop
         id="stop3384"
         offset="1"
         style="stop-color:#dfdfdf;stop-opacity:1;" />
    </linearGradient>
    <linearGradient
       id="linearGradient7422">
      <stop
         style="stop-color:#7c9fcf;stop-opacity:1"
         offset="0"
         id="stop7424" />
      <stop
         id="stop5348"
         offset="0.5"
         style="stop-color:#7c9ece;stop-opacity:1" />
      <stop
         id="stop7426"
         offset="1"
         style="stop-color:#7b9dcf;stop-opacity:1" />
    </linearGradient>
    <linearGradient
       y2="388.95178"
       x2="399.77466"
       y1="1324.7792"
       x1="405.94968"
       gradientTransform="matrix(0.08097132,0,0,0.07807154,182.74486,-6.9021226)"
       gradientUnits="userSpaceOnUse"
       id="linearGradient2330"
       xlink:href="#linearGradient7422"
       inkscape:collect="always" />
    <linearGradient
       inkscape:collect="always"
       xlink:href="#linearGradient3369"
       id="linearGradient38869"
       x1="128"
       y1="63.387901"
       x2="2e-06"
       y2="63.387901"
       gradientUnits="userSpaceOnUse"
       gradientTransform="rotate(90,61.693952,61.69395)" />
    <linearGradient
       inkscape:collect="always"
       xlink:href="#linearGradient3369"
       id="linearGradient42982"
       x1="54.063766"
       y1="82.953201"
       x2="126.61692"
       y2="-37.254951"
       gradientUnits="userSpaceOnUse"
       gradientTransform="translate(-1.0453119e-6,5.2714856)" />
    <linearGradient
       inkscape:collect="always"
       xlink:href="#linearGradient7422"
       id="linearGradient917"
       x1="6.3222656"
       y1="64"
       x2="120.82954"
       y2="64"
       gradientUnits="userSpaceOnUse" />
  </defs>
  <sodipodi:namedview
     pagecolor="#ffffff"
     bordercolor="#666666"
     borderopacity="1"
     objecttolerance="10"
     gridtolerance="10"
     guidetolerance="10"
     inkscape:pageopacity="0"
     inkscape:pageshadow="2"
     inkscape:window-width="1366"
     inkscape:window-height="657"
     id="namedview4"
     showgrid="true"
     inkscape:snap-page="true"
     inkscape:snap-global="true"
     inkscape:zoom="1"
     inkscape:cx="-17.838287"
     inkscape:cy="9.3232882"
     inkscape:window-x="0"
     inkscape:window-y="30"
     inkscape:window-maximized="1"
     inkscape:current-layer="svg2"
     showguides="false"
     inkscape:guide-bbox="true">
    <inkscape:grid
       type="xygrid"
       id="grid837"
       spacingx="4"
       spacingy="4"
       empspacing="1" />
    <sodipodi:guide
       position="136,86"
       orientation="-0.70710678,0.70710678"
       id="guide1537"
       inkscape:locked="false" />
  </sodipodi:namedview>
  <path
     sodipodi:type="inkscape:offset"
     inkscape:radius="4.0046616"
     inkscape:original="M 24 16 C 16.19581 17.780401 10.329242 33.075439 10.326172 64 C 10.336172 94.905712 16.20056 110.2207 24 112 L 24.244141 112 L 25.083984 112 C 25.086984 112.00065 25.09075 112.00085 25.09375 112.00195 C 25.09875 112.00131 25.102752 112.0011 25.107422 112 L 115.66211 112 L 116 112 C 116.29125 111.915 116.56119 111.77618 116.82422 111.61328 C 109.61926 108.61013 104.33566 93.330478 104.32617 64 C 104.32909 34.656269 109.61286 19.394381 116.82031 16.388672 C 116.55992 16.225168 116.29173 16.085242 116 16 L 115.60547 16 L 43.447266 16 L 26.640625 16 L 25.039062 16 L 24.189453 16 L 24 16 z "
     style="fill:url(#linearGradient917);fill-opacity:1.0;fill-rule:evenodd;stroke:none;stroke-width:4.47213125;stroke-linecap:round;stroke-linejoin:round;stroke-miterlimit:4;stroke-dasharray:none;stroke-opacity:1"
     id="path907"
     d="m 24,11.996094 a 4.005062,4.005062 0 0 0 -0.890625,0.09961 C 16.994964,13.490608 13.045484,19.358675 10.412109,27.888672 7.7787352,36.418669 6.3238258,48.284549 6.3222656,64 a 4.005062,4.005062 0 0 0 0,0.002 c 0.00508,15.705938 1.461007,27.56997 4.0937504,36.101567 2.632743,8.53159 6.576727,14.40538 12.693359,15.80078 A 4.005062,4.005062 0 0 0 24,116.00391 h 0.244141 0.839843 l -0.01758,-0.002 a 4.005062,4.005062 0 0 0 0.05859,0 l -0.01758,0.002 H 115.66211 116 a 4.005062,4.005062 0 0 0 1.12109,-0.16016 c 0.7781,-0.22708 1.3726,-0.55373 1.8125,-0.82617 a 4.005062,4.005062 0 0 0 -0.56836,-7.10156 c -1.69712,-0.70739 -4.56861,-4.01827 -6.63476,-11.326176 C 109.66441,89.282294 108.33487,78.423961 108.33008,64 v -0.002 c 0.002,-14.430532 1.32914,-25.287358 3.39453,-32.591797 2.06549,-7.30479 4.93451,-10.612396 6.63672,-11.322266 a 4.005062,4.005062 0 0 0 0.58789,-7.085937 c -0.43773,-0.274858 -1.03621,-0.610972 -1.82617,-0.841797 A 4.005062,4.005062 0 0 0 116,11.996094 H 115.60547 43.447266 26.640625 25.039062 24.189453 Z m 0.179688,103.902346 a 4.005062,4.005062 0 0 0 0.107421,0.0215 l -0.05078,-0.006 c 0.05566,0.0121 -0.0963,-0.0259 -0.05664,-0.0156 z" />
  <g
     transform="matrix(0,0.57912965,0.57912965,0,27.114229,-2.9133545)"
     inkscape:label="Livello 1"
     id="g1544" />
  <g
     transform="matrix(0,-0.57912965,0.57912965,0,27.114229,130.91165)"
     inkscape:label="Livello 1"
     id="g1599" />
  <path
     style="opacity:1;fill:url(#linearGradient42982);fill-opacity:1;stroke:none;stroke-width:5.16429853;stroke-linecap:square;stroke-linejoin:bevel;stroke-miterlimit:4;stroke-dasharray:none;stroke-dashoffset:0;stroke-opacity:0.73039216"
     id="path42947"
     ry="14.755787"
     rx="58.373665"
     cy="25.99929"
     cx="64.000618" />
  <g
     id="g42964"
     transform="translate(0,88)" />
  <path
     style="fill:url(#linearGradient38869);fill-opacity:1;fill-rule:evenodd;stroke:none;stroke-width:4.47213125;stroke-linecap:round;stroke-linejoin:round;stroke-miterlimit:4;stroke-dasharray:none;stroke-opacity:1"
     d="M 24,16 C 16.19581,17.780401 10.329242,33.075439 10.326172,64 10.336172,94.905712 16.20056,110.2207 24,112 h 0.244141 0.839843 c 0.003,6.5e-4 0.0068,9e-4 0.0098,0.002 0.005,-6.4e-4 0.009,-9e-4 0.01367,-0.002 H 115.66211 116 c 0.29125,-0.085 0.56119,-0.22382 0.82422,-0.38672 C 109.61926,108.61013 104.33566,93.330478 104.32617,64 104.32909,34.656269 109.61286,19.394381 116.82031,16.388672 116.55992,16.225168 116.29173,16.085242 116,16 H 115.60547 43.447266 26.640625 25.039062 24.189453 Z"
     id="path37359"
     inkscape:connector-curvature="0"
     sodipodi:nodetypes="ccccccccccccccccccc" />
</svg>
